resources/themes/lulzbot/icons/scale.svg

<?xml version="1.0" encoding="UTF-8" standalone="no"?>
<svg
   xmlns:dc="http://purl.org/dc/elements/1.1/"
   xmlns:cc="http://creativecommons.org/ns#"
   xmlns:rdf="http://www.w3.org/1999/02/22-rdf-syntax-ns#"
   xmlns:svg="http://www.w3.org/2000/svg"
   xmlns="http://www.w3.org/2000/svg"
   width="80mm"
   height="80mm"
   viewBox="0 0 283.46457 283.46457"
   id="svg38008"
   version="1.1">
  <defs
     id="defs38010" />
  <metadata
     id="metadata38013">
    <rdf:RDF>
      <cc:Work
         rdf:about="">
        <dc:format>image/svg+xml</dc:format>
        <dc:type
           rdf:resource="http://purl.org/dc/dcmitype/StillImage" />
        <dc:title></dc:title>
      </cc:Work>
    </rdf:RDF>
  </metadata>
  <g
     id="layer1"
     transform="matrix(1.0398961,0,0,1.0398961,-5.6343484,-804.81569)">
    <path
       style="color:#000000;font-style:normal;font-variant:normal;font-weight:normal;font-stretch:normal;font-size:medium;line-height:normal;font-family:sans-serif;text-indent:0;text-align:start;text-decoration:none;text-decoration-line:none;text-decoration-style:solid;text-decoration-color:#000000;letter-spacing:normal;word-spacing:normal;text-transform:none;direction:ltr;block-progression:tb;writing-mode:lr-tb;baseline-shift:baseline;text-anchor:start;white-space:normal;clip-rule:nonzero;display:inline;overflow:visible;visibility:visible;opacity:1;isolation:auto;mix-blend-mode:normal;color-interpolation:sRGB;color-interpolation-filters:linearRGB;solid-color:#000000;solid-opacity:1;fill:#000000;fill-opacity:1;fill-rule:nonzero;stroke:none;stroke-width:1.18631721;stroke-linecap:butt;stroke-linejoin:miter;stroke-miterlimit:10;stroke-dasharray:none;stroke-dashoffset:0;stroke-opacity:1;color-rendering:auto;image-rendering:auto;shape-rendering:auto;text-rendering:auto;enable-background:accumulate"
       d="m 143.02734,36.121094 -34.7832,55.814453 3.84375,0 16.57617,0 0,29.740233 -48.845701,14.9375 0,27.42969 -32.152343,-4.50195 0,-23.78711 -3.464844,2.74804 -38.4726564,30.55274 41.9375004,46.46289 0,-22.64063 32.152343,2.89453 0,20.00586 68.580081,10.88672 56.90039,-9.48633 0,-21.61718 29.54297,-2.6836 0.41406,22.57032 41.4668,-46.38477 -41.48828,-33.2793 -0.0762,4.35547 -0.33008,19.40235 -29.52929,4.17968 0,-16.5039 -47.54297,-31.46875 0,-23.812503 20.0625,0 -34.79102,-55.814453 z m 0,8.066406 27.10352,43.482422 -16.64063,0 0,26.412108 -20.56054,6.28906 0,-32.701168 -16.99805,0 27.0957,-43.482422 z m 11.08789,73.39258 47.64844,31.53515 0,2.73633 -47.76172,-28.86718 0,4.6582 47.76172,28.86523 0,2.79688 -47.76172,-27.41797 0,4.59375 47.76172,27.41992 0,2.58594 -47.76172,-25.88867 0,4.5332 47.76172,25.88867 0,2.98633 -47.76172,-24.21094 0,4.4707 47.76172,24.21094 0,3.33985 -47.76172,-22.77149 0,4.41406 47.76172,22.77149 0,3.64453 -47.76172,-21.09766 0,4.35547 47.76172,21.10157 0,3.98242 -47.76172,-19.60547 0,4.30273 47.76172,19.60352 0,3.92578 -47.76172,-18.49024 0,4.28711 47.76172,18.49024 0,3.45117 -0.0156,0.002 -47.83203,-16.66992 c 0,0 -54.144358,12.0979 -69.662114,15.38867 l -0.90039,-0.14257 0,-73.53711 70.761714,-21.64258 z m 85.23829,26.97851 31.18554,25.01563 -31.21484,34.91797 -0.30078,-16.28125 -33.72461,3.06445 0,-23.24805 33.73828,-4.76953 0.31641,-18.69922 z m -195.953129,0.0352 0,18.66406 35.978515,5.03907 0,23.14648 -35.978515,-3.23242 0,16.21094 -31.458985,-34.84766 31.458985,-24.98047 z"
       transform="translate(0,768.89763)"
       id="polygon2361-5-5" />
    <g
       id="g37525"
       transform="matrix(1.8537491,0,0,1.8537491,-1807.3892,764.75595)">
      <g
         transform="translate(140.29418,-30.229133)"
         id="g37529" />
    </g>
  </g>
</svg>

<?xml version="1.0" encoding="UTF-8" standalone="no"?>
<svg
   xmlns:dc="http://purl.org/dc/elements/1.1/"
   xmlns:cc="http://creativecommons.org/ns#"
   xmlns:rdf="http://www.w3.org/1999/02/22-rdf-syntax-ns#"
   xmlns:svg="http://www.w3.org/2000/svg"
   xmlns="http://www.w3.org/2000/svg"
   version="1.1"
   id="svg38008"
   viewBox="0 0 283.46457 283.46457"
   height="80mm"
   width="80mm">
  <defs
     id="defs38010" />
  <metadata
     id="metadata38013">
    <rdf:RDF>
      <cc:Work
         rdf:about="">
        <dc:format>image/svg+xml</dc:format>
        <dc:type
           rdf:resource="http://purl.org/dc/dcmitype/StillImage" />
        <dc:title></dc:title>
      </cc:Work>
    </rdf:RDF>
  </metadata>
  <g
     transform="translate(0,-768.89763)"
     id="layer1">
    <path
       id="polygon2361-5-5"
       transform="translate(0,768.89763)"
       d="M 143.02734 36.121094 L 108.24414 91.935547 L 112.08789 91.935547 L 128.66406 91.935547 L 128.66406 121.67578 L 79.818359 136.61328 L 79.818359 164.04297 L 47.666016 159.54102 L 47.666016 135.75391 L 44.201172 138.50195 L 5.7285156 169.05469 L 47.666016 215.51758 L 47.666016 192.87695 L 79.818359 195.77148 L 79.818359 215.77734 L 148.39844 226.66406 L 205.29883 217.17773 L 205.29883 195.56055 L 234.8418 192.87695 L 235.25586 215.44727 L 276.72266 169.0625 L 235.23438 135.7832 L 235.1582 140.13867 L 234.82812 159.54102 L 205.29883 163.7207 L 205.29883 147.2168 L 157.75586 115.74805 L 157.75586 91.935547 L 177.81836 91.935547 L 143.02734 36.121094 z M 143.02734 44.1875 L 170.13086 87.669922 L 153.49023 87.669922 L 153.49023 114.08203 L 132.92969 120.37109 L 132.92969 87.669922 L 115.93164 87.669922 L 143.02734 44.1875 z M 154.11523 117.58008 L 201.76367 149.11523 L 201.76367 151.85156 L 154.00195 122.98438 L 154.00195 127.64258 L 201.76367 156.50781 L 201.76367 159.30469 L 154.00195 131.88672 L 154.00195 136.48047 L 201.76367 163.90039 L 201.76367 166.48633 L 154.00195 140.59766 L 154.00195 145.13086 L 201.76367 171.01953 L 201.76367 174.00586 L 154.00195 149.79492 L 154.00195 154.26562 L 201.76367 178.47656 L 201.76367 181.81641 L 154.00195 159.04492 L 154.00195 163.45898 L 201.76367 186.23047 L 201.76367 189.875 L 154.00195 168.77734 L 154.00195 173.13281 L 201.76367 194.23438 L 201.76367 198.2168 L 154.00195 178.61133 L 154.00195 182.91406 L 201.76367 202.51758 L 201.76367 206.44336 L 154.00195 187.95312 L 154.00195 192.24023 L 201.76367 210.73047 L 201.76367 214.18164 L 201.74805 214.18359 L 153.91602 197.51367 C 153.91602 197.51367 99.771662 209.61157 84.253906 212.90234 L 83.353516 212.75977 L 83.353516 139.22266 L 154.11523 117.58008 z M 239.35352 144.55859 L 270.53906 169.57422 L 239.32422 204.49219 L 239.02344 188.21094 L 205.29883 191.27539 L 205.29883 168.02734 L 239.03711 163.25781 L 239.35352 144.55859 z M 43.400391 144.59375 L 43.400391 163.25781 L 79.378906 168.29688 L 79.378906 191.44336 L 43.400391 188.21094 L 43.400391 204.42188 L 11.941406 169.57422 L 43.400391 144.59375 z "
       style="color:#000000;font-style:normal;font-variant:normal;font-weight:normal;font-stretch:normal;font-size:medium;line-height:normal;font-family:sans-serif;text-indent:0;text-align:start;text-decoration:none;text-decoration-line:none;text-decoration-style:solid;text-decoration-color:#000000;letter-spacing:normal;word-spacing:normal;text-transform:none;direction:ltr;block-progression:tb;writing-mode:lr-tb;baseline-shift:baseline;text-anchor:start;white-space:normal;clip-rule:nonzero;display:inline;overflow:visible;visibility:visible;opacity:1;isolation:auto;mix-blend-mode:normal;color-interpolation:sRGB;color-interpolation-filters:linearRGB;solid-color:#000000;solid-opacity:1;fill:#000000;fill-opacity:1;fill-rule:nonzero;stroke:none;stroke-width:1.18631721;stroke-linecap:butt;stroke-linejoin:miter;stroke-miterlimit:10;stroke-dasharray:none;stroke-dashoffset:0;stroke-opacity:1;color-rendering:auto;image-rendering:auto;shape-rendering:auto;text-rendering:auto;enable-background:accumulate" />
    <g
       transform="matrix(1.8537491,0,0,1.8537491,-1807.3892,764.75595)"
       id="g37525">
      <g
         id="g37529"
         transform="translate(140.29418,-30.229133)" />
    </g>
  </g>
</svg>
